Adwaita++/actions/22/adjustcurves.svg

<svg height="22" viewBox="0 0 22 22" width="22" xmlns="http://www.w3.org/2000/svg">
  <path d="m1 0v14h-1v1h1v1h1v-1h14v-1h-14v-3.125l3.9980469-3.9980469 2.1230469 2.1230469.0058593-.0039062.0039063.0039062 7.8691406-7.875v-1.125h-.289062c.0072-.012362-7.5839849 7.5898437-7.5839849 7.5898438l-2.1269531-2.125-.0019531.0019531-.0019531-.0019531-3.9960938 3.9960937v-9.4609375z" fill="#444" transform="translate(3 3)"/>
</svg>

<svg xmlns="http://www.w3.org/2000/svg" width="22" height="22" viewBox="0 0 22 22">
 <defs>
  <style id="current-color-scheme" type="text/css">
   .ColorScheme-Text { color:#444444; } .ColorScheme-Highlight { color:#4285f4; }
  </style>
 </defs>
 <path style="fill:currentColor" class="ColorScheme-Text" d="M 1 0 L 1 14 L 0 14 L 0 15 L 1 15 L 1 16 L 2 16 L 2 15 L 16 15 L 16 14 L 2 14 L 2 10.875 L 5.9980469 6.8769531 L 8.1210938 9 L 8.1269531 8.9960938 L 8.1308594 9 L 16 1.125 L 16 0 L 15.710938 0 C 15.718138 -0.012362 8.1269531 7.5898437 8.1269531 7.5898438 L 6 5.4648438 L 5.9980469 5.4667969 L 5.9960938 5.4648438 L 2 9.4609375 L 2 0 L 1 0 z" transform="translate(3 3)"/>
</svg>
